resources/haticons/SVG/insert_chart.svg

<!-- Generated by IcoMoon.io -->
<svg version="1.1" xmlns="http://www.w3.org/2000/svg" width="24" height="24" viewBox="0 0 24 24">
<title>insert_chart</title>
<path d="M17.016 17.016v-4.031h-2.016v4.031h2.016zM12.984 17.016v-10.031h-1.969v10.031h1.969zM9 17.016v-7.031h-2.016v7.031h2.016zM18.984 3q0.797 0 1.406 0.609t0.609 1.406v13.969q0 0.797-0.609 1.406t-1.406 0.609h-13.969q-0.797 0-1.406-0.609t-0.609-1.406v-13.969q0-0.797 0.609-1.406t1.406-0.609h13.969z"></path>
</svg>

<svg xmlns="http://www.w3.org/2000/svg" width="24" height="24"><path d="M17.016 17.016v-4.031H15v4.031h2.016zm-4.032 0V6.985h-1.969v10.031h1.969zm-3.984 0V9.985H6.984v7.031H9zM18.984 3q.797 0 1.406.609t.609 1.406v13.969q0 .797-.609 1.406t-1.406.609H5.015q-.797 0-1.406-.609T3 18.984V5.015q0-.797.609-1.406T5.015 3h13.969z"/></svg>
